X: 706
T: THE YELLOW LITTLE BOY
M:6/8
L:1/8
B:O'NEILL'S 706
N:"collected by F. O'Neill"
Z:Transcribed by A. LEE WORMAN
K:D
AFD DFA|DFA AdB|AFD DFA|B2 A BdB|
AFD DFA|DFA ABc|def gfe|fdB B2 d:|
||Add fdd|edd fdd|Add fdd|edB B2 d|
Add fdd|edd fdd|gfe fdB|AFA B2 d:|


